X:65
T:Drink to me Only With Thine Eyes.2voices RH.065
R:Air
S:Rev.R.Harrison’s MS,c1815,Cumbria
N:I shortened the A & B musics by one quaver, and added
N:the leading rest, to make file play correctly. PJH.
O:England
A:Temple Sowerby,Cumbria
Z:vmp.Simon Wilson. Review PJH, 2008.
M:6/8
L:1/8
Q:3/8=60
K:D
[V:1] z|fff g2g|(agf) (efg)|adg f2e|d3-d3|
[V:2] z|ddd e2e|(fed) (cde)|dfe d2A|F3- F3|
%
[V:1] fff g2g|(agf) (efg)|adgf2e|d3- d2:|
[V:2] ddd e2e|fed cde|dfe d2A|F3- F2:|
%
[V:1]|:a|afa d’2a|afa a2a|b2a g2f|f3-f3|
[V:2]|:f|fdf f2f|fdf f2f|g2f e2d|(d3 c3)|
%
[V:1] fff g2g|agf efg|adg f2e|d3-d2:|
[V:2] ddd e2e|fed cde|dfe d2A|[F3d3] [F2d2]:|

